X:1
T:Title
%%score { ( 1 3 ) | ( 2 4 ) }
L:1/8
Q:1/4=100
M:4/4
K:Ab
V:1 treble nm="Grand Piano"
V:3 treble 
V:2 bass 
V:4 bass 
V:1
 [Cc]2 E>F E2 c2 | [DFc]2 [DFB]2 [DF]4 | [DG]2 B>G F2 G2 | [CE]6 z2 | [CA]2 G>A E2 F2 | %5
w: I.~H.~Meredith * * * *|||||
 G2 B2 =d2 c2 | [A,=DF]2 [G,G]>A [Dc]2 [DB]2 |[M:7/8] [DB]-[DB]-[DB]- [DB]- [DB]3 |[M:1/4] z2 | %9
w: ||||
[M:4/4] [ce]2 [ce]4 [Bd]>e | [Ac]2 [Ac]4 [A,CE]2 | z2 [Ec]4[K:bass][K:treble] z2 | [CA]6 A>A | %13
w: ||||
 [FA]2 [FB]2 [FA]2 [DF]2 | [A,CE]2 [CF]2 [DG]2 [EA]2 | [=Dc]2 [DF]2 [DG]2 [DA]2 | [DB]6 z2 | %17
w: ||||
 [ce]2 [ce]4 [Bd]>e | [Ac]2 [Ac]4 [A,CE]2 | z2 [Ec]4[K:bass][K:treble] z2 | [CA]6 [CFA]>[CFA] | %21
w: ||||
 [DFB]2 [A,F]2 [Fc]2 F2 | [Fe]2 [Fd]2 [Fc]2 [FB]2 | A4 G4 | [A,CA]6 z2 |] %25
w: ||||
V:2
 A,,2 [E,C]2 [A,C]2 [E,CE]2 | B,,2 F,2 B,2 F,2 | E,,2 [E,D]2 [G,D]2 [E,D]2 | A,,2 G,2 F,2 E,2 | %4
 A,,2 [E,C]2 [A,C]2 [A,_CE]2 | [B,E]2 [G,B,E]2 [_G,=A,E]2 [G,A,E]2 | %6
 B,,2 z z/ F,/ [B,,A,]2 [B,,A,]2 |[M:7/8] A,2 F,2 G,3 |[M:1/4] E2 | %9
[M:4/4] z4 z2 [E,G,D]2[K:treble] | A,,2 [E,A,C]2 E,,2 E,2 | A,,2 [E,A,C]2 z2 D>E | %12
 A,,2 E,2 A,2 E>=E | D,2 A,2 D2 A,2 | A,,2 [A,,E,]2 [B,,E,]2 [C,A,]2 | %15
 [B,,A,]2 [B,,A,]2 [B,,G,]2 [B,,F,]2 | E,2- [E,-F,]2 [E,G,]2 E2 | z4 z2 [E,G,D]2[K:treble] | %18
 A,,2 [E,A,C]2 E,,2 E,2 | A,,2 [E,A,C]2 z2 D>E | F,,2 F,2 A,2 F,>F, | D,2 D,2 [C,=A,]2 [F,A,]2 | %22
 [B,,B,]2 [B,,B,]2 [C,=A,]2 [D,B,]2 | [CE]2 C2 [B,D]2 B,2 | A,,6 z2 |] %25
V:3
 x8 | x8 | x8 | x8 | x8 | x8 | z2 =D2 z4 |[M:7/8] x7 |[M:1/4] x2 |[M:4/4] x8 | x8 | %11
 [Ec]2 z2[K:bass] E,,2[K:treble] B>c | x8 | x8 | x8 | x8 | x8 | x8 | x8 | %19
 [Ec]2 z2[K:bass] E,,2[K:treble] B>c | x8 | x8 | x8 | z2 E2 z2 D2 | x8 |] %25
V:4
 x8 | x8 | x8 | x8 | x8 | x8 | z2 B,,2 z4 |[M:7/8] E,-E,-E,- E,- E,3 |[M:1/4] x2 | %9
[M:4/4] A,,2 [E,A,C]2 E,,2 z z/[K:treble] c/ | x8 | z4 z2 [E,G,]2 | x8 | x8 | x8 | x8 | A,2 z2 z4 | %17
 A,,2 [E,A,C]2 E,,2 z z/[K:treble] c/ | x8 | z4 z2 [E,G,]2 | x8 | x8 | x8 | E,4 E,4 | x8 |] %25

